X: 07099
T: Quinn's Hornpipe
C: Bob McQuillen 30 May 89
B: Bob's Note Book 7 #99
%R: hornpipe, reel
Z: 2020 John Chambers <jc:trillian.mit.edu>
M: C
L: 1/8
K: G	% and Em
GB \
| AGBG E2GE | DB,A,B, G,2B,D | EDEG DEGA | B2A2 A2GB |\
| AGBG EDGE | DB,A,B, G,2B,D | EDEG DEGA | B2G2 G2 :|
|: Bd \
| eged BAGB | dedB A2GA | Bdeg edBA | GEDB, D2B,D |\
| EDEG ABGA | BedB edBA | GAGD EDB,A, | B,2E2 E2 :|
%%begintext align
%% Eddie Quinn was absolutely
%% entranced when he first heard a bunch of us jamming
%% one night at the Philly Festival, and I decided then
%% that some day he'd have his own tune, so here it is!
%%endtext

%%sep 1 1 500

%%sep 1 1 500

